X:1
T:Oh mio babbino caro (Oh, My Beloved Father) Key of G
T:Giacomo Puccini (1858-1924)
T:Violin
L:1/8
M:6/8
K:G
V:1 treble nm="Vln." snm="Vln."
V:1
 d3 ddd | ddd d3 | vGuGvG B2 F | E3 D3 | GAB G2 g | d3- d2 B | d2 A c2 B | G3 G3 | GAB G2 F | %9
 A3- A2 D | G3 BGF | E3 D3 | GAB G2 g | d3- d2 e | g2 e d2 c | d3 B3 | GAB G2 E | G3 G2 e | %18
 g2 e d2 c | g2 d c2 B | e3- e3- | e2 c B2 A | G3 B2 F | E3 D3 | GAB G2 g | d3- d3 | GAB G2 E | %27
 G6 |] %28

